X:1
N: Balmoral Strathspey
N: 4x32S 4C (RSCDS Book 22)                     NOTE:  4 couple dance, 4x
P: Balmoral Strathspey
C: Robert R. Gourlay, RSCDS Bk 22
C: arr. T. Traub 9-28-95, rev. 2-15-2000
K: A
M: 4/4
L: 1/8
|: c|"A"C>AE>A "D"F<A"A"E>c|"Bm"d>B"A"c>A "E"Gc| "A"C>AE>A "D"F<Ad>f|"A"(3ecA "E"(3EdB "A"c<A A :|
d|"A"c>Aa>e "D"f<a"E"e>g|"A"a>ec>A "E"Gd|"A"c>Aa>e "D"f<a"A"e>f|"A"(3ecA "E"(3EdB "A"c<AA>d|
"A"c>Aa>e "D"f<a"E"e>g|"A"a>ec>A "E"Gc|"A"(3AEA (3cAc (3ece "D"(3agf|"A"(3ecA "E"(3EdB "A"c<A A |]
